argon/scalable/status/weather-clear-night-symbolic.symbolic.svg

<?xml version="1.0" encoding="UTF-8" standalone="no"?>
<svg
   xmlns:dc="http://purl.org/dc/elements/1.1/"
   xmlns:cc="http://creativecommons.org/ns#"
   xmlns:rdf="http://www.w3.org/1999/02/22-rdf-syntax-ns#"
   xmlns:svg="http://www.w3.org/2000/svg"
   xmlns="http://www.w3.org/2000/svg"
   xmlns:sodipodi="http://sodipodi.sourceforge.net/DTD/sodipodi-0.dtd"
   xmlns:inkscape="http://www.inkscape.org/namespaces/inkscape"
   height="16"
   width="16"
   version="1.1"
   id="svg4"
   sodipodi:docname="weather-clear-night-symbolic.symbolic.svg"
   inkscape:version="1.0.1 (3bc2e813f5, 2020-09-07)">
  <metadata
     id="metadata10">
    <rdf:RDF>
      <cc:Work
         rdf:about="">
        <dc:format>image/svg+xml</dc:format>
        <dc:type
           rdf:resource="http://purl.org/dc/dcmitype/StillImage" />
        <dc:title />
      </cc:Work>
    </rdf:RDF>
  </metadata>
  <defs
     id="defs8" />
  <sodipodi:namedview
     pagecolor="#333333"
     bordercolor="#666666"
     borderopacity="1"
     objecttolerance="10"
     gridtolerance="10"
     guidetolerance="10"
     inkscape:pageopacity="0"
     inkscape:pageshadow="2"
     inkscape:window-width="1836"
     inkscape:window-height="1016"
     id="namedview6"
     showgrid="false"
     inkscape:zoom="26.9375"
     inkscape:cx="5.2822516"
     inkscape:cy="9.3536896"
     inkscape:window-x="2004"
     inkscape:window-y="27"
     inkscape:window-maximized="1"
     inkscape:current-layer="layer1"
     inkscape:document-rotation="0" />
  <g
     inkscape:groupmode="layer"
     id="layer1"
     inkscape:label="Icon">
    <path
       id="path2"
       style="marker:none;fill:#000000"
       d="M 6 1.1953125 C 5.76 1.7123125 5.5727969 2.2395 5.4667969 2.5625 C 5.1192142 2.5625 4.5483567 2.5757084 4.0019531 2.6464844 C 4.4189531 3.0364844 4.8617188 3.3761719 5.1367188 3.5761719 C 5.0287188 3.9061719 4.8637188 4.4560938 4.7617188 4.9960938 L 4.7636719 4.9960938 C 5.2626719 4.7200938 5.7230469 4.4040781 5.9980469 4.2050781 A 12.06 12.06 0 0 0 7.234375 4.9980469 A 12.804 12.804 0 0 0 6.8632812 3.5800781 A 12.065 12.065 0 0 0 8 2.6503906 L 8 2.6484375 L 7.9980469 2.6484375 A 12.788 12.788 0 0 0 6.5351562 2.5644531 A 12.07 12.07 0 0 0 6.0019531 1.1953125 L 6 1.1953125 z M 10.296875 2.2441406 A 5.725 5.725 0 0 1 11.396484 7.3417969 A 5.729 5.729 0 0 1 4.3808594 11.390625 A 5.728 5.728 0 0 1 2.2480469 10.292969 A 6.507 6.507 0 0 0 6.8085938 14.777344 A 6.506 6.506 0 0 0 14.777344 10.177734 A 6.507 6.507 0 0 0 10.298828 2.2441406 L 10.296875 2.2441406 z M 2.5 5.1464844 A 9.6 9.6 0 0 0 2.0996094 6.171875 A 9.032 9.032 0 0 0 1 6.234375 A 9.6 9.6 0 0 0 1.8515625 6.9316406 C 1.7705625 7.1796406 1.6482656 7.5920469 1.5722656 7.9980469 A 9.59 9.59 0 0 0 2.4980469 7.4042969 A 8.9 8.9 0 0 0 3.4257812 8 L 3.4257812 7.9980469 C 3.3437813 7.5780469 3.2254844 7.1775469 3.1464844 6.9355469 C 3.3574844 6.7825469 3.7 6.5203281 4 6.2363281 A 9.596 9.596 0 0 0 2.9003906 6.1738281 A 9.078 9.078 0 0 0 2.5019531 5.1464844 L 2.5 5.1464844 z " />
  </g>
</svg>

<?xml version="1.0" encoding="UTF-8" standalone="no"?>
<svg
   xmlns:dc="http://purl.org/dc/elements/1.1/"
   xmlns:cc="http://creativecommons.org/ns#"
   xmlns:rdf="http://www.w3.org/1999/02/22-rdf-syntax-ns#"
   xmlns:svg="http://www.w3.org/2000/svg"
   xmlns="http://www.w3.org/2000/svg"
   xmlns:sodipodi="http://sodipodi.sourceforge.net/DTD/sodipodi-0.dtd"
   xmlns:inkscape="http://www.inkscape.org/namespaces/inkscape"
   height="16"
   width="16"
   version="1.1"
   id="svg4"
   sodipodi:docname="weather-clear-night-symbolic.symbolic.svg"
   inkscape:version="1.0.1 (3bc2e813f5, 2020-09-07)">
  <metadata
     id="metadata10">
    <rdf:RDF>
      <cc:Work
         rdf:about="">
        <dc:format>image/svg+xml</dc:format>
        <dc:type
           rdf:resource="http://purl.org/dc/dcmitype/StillImage" />
        <dc:title />
      </cc:Work>
    </rdf:RDF>
  </metadata>
  <defs
     id="defs8" />
  <sodipodi:namedview
     pagecolor="#333333"
     bordercolor="#666666"
     borderopacity="1"
     objecttolerance="10"
     gridtolerance="10"
     guidetolerance="10"
     inkscape:pageopacity="0"
     inkscape:pageshadow="2"
     inkscape:window-width="1836"
     inkscape:window-height="1016"
     id="namedview6"
     showgrid="false"
     inkscape:zoom="26.9375"
     inkscape:cx="3.5720854"
     inkscape:cy="10.846167"
     inkscape:window-x="2004"
     inkscape:window-y="27"
     inkscape:window-maximized="1"
     inkscape:current-layer="svg4"
     inkscape:document-rotation="0" />
  <path
     d="M6.001 1.195L6 1.196c-.24.517-.427 1.043-.533 1.366-.348 0-.92.013-1.467.084v.001h.001c.417.39.86.73 1.135.93-.108.33-.272.88-.374 1.42h.002c.499-.276.959-.592 1.234-.791a12.06 12.06 0 001.236.793v-.001a12.804 12.804 0 00-.371-1.418A12.065 12.065 0 008 2.65v-.001h-.001a12.788 12.788 0 00-1.464-.085 12.07 12.07 0 00-.534-1.37zM2.5 5.146a9.6 9.6 0 00-.4 1.025 9.032 9.032 0 00-1.1.064 9.6 9.6 0 00.852.697c-.081.248-.204.66-.28 1.066a9.59 9.59 0 00.926-.594A8.9 8.9 0 003.426 8v-.001c-.082-.42-.2-.822-.279-1.064.211-.153.553-.414.853-.698a9.596 9.596 0 00-1.099-.064 9.078 9.078 0 00-.4-1.027zm7.797-2.901a5.725 5.725 0 011.1 5.096 5.729 5.729 0 01-7.016 4.05 5.728 5.728 0 01-2.132-1.099 6.507 6.507 0 004.56 4.485 6.506 6.506 0 007.969-4.6 6.507 6.507 0 00-4.48-7.932zm2.166 2.457a5.471 5.471 0 011.528 4.127 5.567 5.567 0 01-.18 1.09 5.49 5.49 0 01-9.137 2.528c3.4.61 6.78-1.453 7.69-4.846v-.002a6.71 6.71 0 00.1-2.897z"
     fill="gray"
     overflow="visible"
     style="marker:none;fill:#000000"
     color="#000"
     id="path2" />
</svg>
